X:1
T:O'Carolan's Farewell To Music
%%score ( 1 2 )
L:1/8
Q:1/4=68
M:2/4
K:D
V:1 treble nm="MusicXML Part"
V:2 treble 
V:1
 x3 B, |: E2 EF | G2 (3GFE | D>E F/A/B/c/ | d>e f/e/d/B/ | B>A F/A/B/c/ | d>B (3BAF | B>A FG | %8
 EG F/E/D/B,/ | E2 EF | G2 (3GFE | DE (3FED | e>d (3efg | B2 Bd | A2 AB | GF F/E/F/G/ |1 E3 B, :| %17
"^2" E3 B |]: e2 ef | ed ef | ed ef | eg (3fed | [Bd]2 de | dB de | fe df | eg (3fed | [Be-]2 ed | %27
 ed ef | (3efg (3efg | fe dB | dc de | f/g/e/f/ d/e/c/d/ | B/c/A/B/ G/A/F/G/ | EG (3FED |1 E3 B :| %35
 E4"^2" |] %36
V:2
 x4 |: [E,B,]4 | =C2 B,2 | F,2 A,2 | B,2 A,2 | G,2 A,2 | B,2 D2 | G,2 A,2 | [E,B,]2 A, z | %9
 [E,B,]4 | B,2 =C2 | B,2 A,2 | =C2 B,2 | G,2 DB, | F,2 =CD | B,2 A,2 |1 E,4 :| [E,B,]4 |]: %18
 E,E- E2 | G,2 B,2 | =C2 B,2 | G,2 A,2 | G,2 B,2 | F,2 G,2 | A,2 B,2 | =C2 (3A,G,F, | E,2 B,2 | %27
 G,2 B,2 | =C2 B,2 | A,2 G,2 | F,2 A,2 | DC B,A, | G,F, E,A, | [E,B,]2 A,2 |1 [E,B,]4 :| [E,B,]4 |] %36

